flaticon/household/table-1.svg

<svg xmlns="http://www.w3.org/2000/svg" width="32" height="32" viewBox="0 0 24 24">
    <path d="M22.800781 8.09375L21.601562 8.09375C22.261719 8.09375 22.800781 7.554688 22.800781 6.894531 22.800781 6.230469 22.261719 5.691406 21.601562 5.691406L21.199219 5.691406 21.199219 5.292969 18.398438 5.292969 18.398438 8.09375 15.558594 8.09375C16.582031 7.617188 17.199219 6.96875 17.199219 6.226562 17.199219 6.09375 17.175781 5.957031 17.125 5.804688L17.011719 5.445312 16.644531 5.542969C16.558594 5.566406 16.464844 5.582031 16.378906 5.601562 16.265625 4.753906 15.546875 4.09375 14.667969 4.09375 14.367188 4.09375 14.078125 4.175781 13.824219 4.320312 13.457031 3.859375 12.898438 3.558594 12.265625 3.558594 11.859375 3.558594 11.472656 3.679688 11.144531 3.90625 10.738281 3.527344 10.199219 3.292969 9.601562 3.292969 8.675781 3.292969 7.863281 3.855469 7.515625 4.679688 6.75 4.484375 5.921875 4.746094 5.476562 5.390625 5.292969 5.65625 5.199219 5.9375 5.199219 6.226562 5.199219 6.96875 5.816406 7.617188 6.84375 8.09375L1.199219 8.09375C.539062 8.09375 0 8.632812 0 9.292969 0 9.953125.539062 10.492188 1.199219 10.492188L10.398438 10.492188 10.398438 16.09375 10.800781 16.09375 10.800781 16.894531 10 16.894531 10 17.292969C10 19.058594 8.5625 20.492188 6.800781 20.492188L5.199219 20.492188C4.980469 20.492188 4.800781 20.671875 4.800781 20.894531 4.800781 21.113281 4.980469 21.292969 5.199219 21.292969L18.800781 21.292969C19.019531 21.292969 19.199219 21.113281 19.199219 20.894531 19.199219 20.671875 19.019531 20.492188 18.800781 20.492188L17.199219 20.492188C15.4375 20.492188 14 19.058594 14 17.292969L14 16.894531 13.199219 16.894531 13.199219 16.09375 13.601562 16.09375 13.601562 10.492188 22.800781 10.492188C23.460938 10.492188 24 9.953125 24 9.292969 24 8.632812 23.460938 8.09375 22.800781 8.09375zM21.601562 6.492188C21.820312 6.492188 22 6.671875 22 6.894531 22 7.113281 21.820312 7.292969 21.601562 7.292969L21.199219 7.292969 21.199219 6.492188zM19.199219 6.09375L20.398438 6.09375 20.398438 8.09375 19.199219 8.09375zM14.191406 5.023438C14.335938 4.9375 14.496094 4.894531 14.667969 4.894531 15.160156 4.894531 15.5625 5.277344 15.597656 5.761719 15.441406 5.785156 15.289062 5.8125 15.128906 5.832031 15.070312 5.839844 15.015625 5.847656 14.960938 5.855469 14.722656 5.886719 14.476562 5.90625 14.230469 5.921875 14.234375 5.910156 14.234375 5.902344 14.234375 5.894531 14.253906 5.78125 14.265625 5.671875 14.265625 5.558594 14.265625 5.441406 14.25 5.320312 14.230469 5.203125 14.222656 5.171875 14.21875 5.140625 14.210938 5.105469 14.203125 5.078125 14.199219 5.050781 14.191406 5.023438zM12.265625 4.359375C12.753906 4.359375 13.171875 4.652344 13.359375 5.066406 13.390625 5.136719 13.410156 5.203125 13.429688 5.273438 13.429688 5.285156 13.4375 5.296875 13.4375 5.308594 13.457031 5.390625 13.46875 5.472656 13.46875 5.558594 13.46875 5.652344 13.453125 5.746094 13.429688 5.835938 13.425781 5.855469 13.421875 5.871094 13.417969 5.886719 13.410156 5.910156 13.398438 5.929688 13.386719 5.953125 13.355469 5.953125 13.324219 5.957031 13.292969 5.957031 13.167969 5.957031 13.039062 5.953125 12.910156 5.953125 12.78125 5.949219 12.648438 5.949219 12.519531 5.941406 12.394531 5.9375 12.269531 5.925781 12.148438 5.917969 12.042969 5.910156 11.941406 5.90625 11.839844 5.894531 11.855469 5.78125 11.867188 5.671875 11.867188 5.558594 11.867188 5.476562 11.859375 5.390625 11.851562 5.308594 11.847656 5.285156 11.84375 5.257812 11.839844 5.234375 11.832031 5.175781 11.824219 5.121094 11.8125 5.066406 11.804688 5.039062 11.796875 5.007812 11.789062 4.980469 11.773438 4.929688 11.761719 4.875 11.742188 4.824219 11.734375 4.796875 11.722656 4.773438 11.714844 4.746094 11.691406 4.691406 11.667969 4.636719 11.644531 4.585938 11.636719 4.570312 11.632812 4.558594 11.625 4.546875 11.816406 4.425781 12.035156 4.359375 12.265625 4.359375zM9.601562 4.09375C10.09375 4.09375 10.527344 4.339844 10.796875 4.714844 10.816406 4.746094 10.835938 4.777344 10.855469 4.808594 10.878906 4.851562 10.90625 4.898438 10.925781 4.945312 10.941406 4.976562 10.953125 5.007812 10.96875 5.042969 10.988281 5.09375 11.003906 5.152344 11.019531 5.207031 11.027344 5.234375 11.035156 5.261719 11.039062 5.292969 11.054688 5.378906 11.066406 5.46875 11.066406 5.558594 11.066406 5.640625 11.054688 5.71875 11.042969 5.800781 11.03125 5.800781 11.015625 5.796875 11.003906 5.796875 10.761719 5.757812 10.523438 5.714844 10.289062 5.667969 10.207031 5.648438 10.132812 5.628906 10.054688 5.609375 9.894531 5.574219 9.738281 5.535156 9.585938 5.492188 9.503906 5.46875 9.425781 5.441406 9.34375 5.417969 9.207031 5.375 9.070312 5.332031 8.9375 5.28125 8.859375 5.253906 8.789062 5.222656 8.714844 5.195312 8.589844 5.144531 8.46875 5.09375 8.355469 5.039062 8.320312 5.023438 8.285156 5.003906 8.25 4.988281 8.476562 4.457031 9.003906 4.09375 9.601562 4.09375zM6 6.226562C6 6.101562 6.042969 5.976562 6.132812 5.847656 6.332031 5.5625 6.664062 5.40625 7.015625 5.40625 7.210938 5.40625 7.410156 5.457031 7.59375 5.554688L7.628906 5.574219C7.777344 5.65625 7.9375 5.730469 8.101562 5.808594 8.144531 5.828125 8.191406 5.847656 8.234375 5.863281 8.378906 5.925781 8.527344 5.984375 8.679688 6.042969 8.714844 6.054688 8.746094 6.070312 8.78125 6.082031 8.960938 6.144531 9.148438 6.203125 9.339844 6.257812 9.402344 6.273438 9.464844 6.289062 9.53125 6.308594 9.667969 6.34375 9.804688 6.378906 9.945312 6.410156 10.023438 6.429688 10.101562 6.445312 10.183594 6.460938 10.371094 6.5 10.5625 6.539062 10.757812 6.570312 10.761719 6.570312 10.765625 6.570312 10.769531 6.570312L10.765625 6.578125 11.277344 6.640625C11.28125 6.644531 11.285156 6.644531 11.285156 6.644531L11.59375 6.679688C11.753906 6.695312 11.921875 6.707031 12.085938 6.71875 12.152344 6.722656 12.21875 6.726562 12.285156 6.730469 12.507812 6.746094 12.734375 6.75 12.957031 6.753906L12.949219 6.773438 13.660156 6.753906C13.660156 6.753906 13.664062 6.753906 13.667969 6.753906L13.890625 6.746094 13.894531 6.742188C13.972656 6.738281 14.050781 6.734375 14.128906 6.730469 14.328125 6.71875 14.527344 6.703125 14.722656 6.683594 14.765625 6.679688 14.808594 6.679688 14.847656 6.671875 15.085938 6.648438 15.320312 6.617188 15.550781 6.582031 15.613281 6.574219 15.671875 6.5625 15.730469 6.550781 15.835938 6.535156 15.941406 6.519531 16.046875 6.5L16.304688 6.449219 16.308594 6.445312C16.324219 6.441406 16.34375 6.4375 16.359375 6.433594 16.046875 7.253906 13.945312 8.09375 11.199219 8.09375 8.222656 8.09375 6 7.105469 6 6.226562zM13.21875 17.691406C13.335938 18.835938 13.929688 19.835938 14.804688 20.492188L9.199219 20.492188C10.070312 19.835938 10.667969 18.835938 10.78125 17.691406zM12.398438 16.894531L11.601562 16.894531 11.601562 16.09375 12.398438 16.09375zM12.800781 15.292969L11.199219 15.292969 11.199219 10.492188 12.800781 10.492188zM22.800781 9.691406L1.199219 9.691406C.980469 9.691406.800781 9.511719.800781 9.292969.800781 9.070312.980469 8.894531 1.199219 8.894531L22.800781 8.894531C23.019531 8.894531 23.199219 9.070312 23.199219 9.292969 23.199219 9.511719 23.019531 9.691406 22.800781 9.691406zM19.785156 4.925781C19.835938 4.945312 19.886719 4.953125 19.9375 4.953125 20.09375 4.953125 20.242188 4.863281 20.308594 4.707031 20.390625 4.507812 20.300781 4.28125 20.109375 4.191406 20.621094 3.972656 20.699219 3.644531 20.699219 3.46875 20.699219 3.289062 20.621094 2.957031 20.089844 2.738281 19.886719 2.652344 19.652344 2.75 19.570312 2.953125 19.488281 3.152344 19.574219 3.378906 19.765625 3.46875 19.253906 3.6875 19.175781 4.015625 19.175781 4.191406 19.175781 4.371094 19.253906 4.703125 19.785156 4.925781zM19.785156 4.925781"/>
</svg>

<svg xmlns="http://www.w3.org/2000/svg" width="32" height="32" viewBox="0 0 24 24">
    <path d="M22.8 8.094h-1.198a1.202 1.202 0 0 0 0-2.403h-.403v-.398h-2.8v2.8h-2.84c1.023-.476 1.64-1.124 1.64-1.866 0-.133-.023-.27-.074-.422l-.113-.36-.367.098c-.086.023-.18.039-.266.059a1.732 1.732 0 0 0-1.711-1.508c-.3 0-.59.082-.844.226a1.99 1.99 0 0 0-1.558-.761c-.407 0-.793.12-1.121.347a2.252 2.252 0 0 0-1.543-.613c-.926 0-1.739.562-2.086 1.387-.766-.196-1.594.066-2.04.71a1.456 1.456 0 0 0-.277.837c0 .742.617 1.39 1.645 1.867H1.199C.54 8.094 0 8.633 0 9.293s.54 1.2 1.2 1.2h9.198v5.6h.403v.802H10v.398c0 1.766-1.438 3.2-3.2 3.2H5.2a.401.401 0 0 0 0 .8h13.6a.4.4 0 0 0 0-.8h-1.6a3.203 3.203 0 0 1-3.2-3.2v-.398h-.8v-.801h.402v-5.602H22.8c.66 0 1.199-.539 1.199-1.199s-.54-1.2-1.2-1.2zm-1.198-1.602a.401.401 0 0 1 0 .801h-.403v-.8zm-2.403-.398h1.2v2h-1.2zm-5.008-1.07a.934.934 0 0 1 1.406.738c-.156.023-.308.05-.468.07l-.168.023c-.238.032-.484.051-.73.067.003-.012.003-.02.003-.027.02-.114.032-.223.032-.336 0-.118-.016-.239-.036-.356-.007-.031-.011-.062-.02-.098-.007-.027-.01-.054-.019-.082zm-1.925-.665a1.202 1.202 0 0 1 1.164.914c0 .012.008.024.008.036.019.082.03.164.03.25 0 .093-.015.187-.038.277l-.012.05c-.008.024-.02.044-.031.067-.032 0-.063.004-.094.004-.125 0-.254-.004-.383-.004-.129-.004-.262-.004-.39-.012-.125-.003-.25-.015-.372-.023-.105-.008-.207-.012-.308-.023.015-.114.027-.223.027-.336 0-.082-.008-.168-.015-.25l-.012-.075a2.154 2.154 0 0 0-.027-.168l-.024-.086c-.016-.05-.027-.105-.047-.156-.008-.027-.02-.05-.027-.078-.024-.055-.047-.11-.07-.16-.008-.016-.012-.027-.02-.04.191-.12.41-.187.64-.187zm-2.664-.265c.492 0 .925.246 1.195.62l.058.095c.024.043.051.09.07.136.016.032.028.063.044.098.02.05.035.11.05.164a1.494 1.494 0 0 1 .047.352c0 .082-.011.16-.023.242-.012 0-.027-.004-.04-.004-.241-.04-.48-.082-.714-.129l-.234-.059a8.215 8.215 0 0 1-.47-.117c-.081-.023-.16-.05-.241-.074-.137-.043-.274-.086-.406-.137-.079-.027-.149-.058-.223-.086a6.2 6.2 0 0 1-.36-.156c-.035-.016-.07-.035-.105-.05a1.473 1.473 0 0 1 1.352-.895zM6 6.227c0-.125.043-.25.133-.38.199-.285.531-.44.883-.44.195 0 .394.05.578.148l.035.02c.148.081.309.155.473.234.043.02.09.039.132.054.145.063.293.121.446.18.035.012.066.027.101.039.18.063.367.121.559.176a12.827 12.827 0 0 0 1.418.313h.012l-.004.007.511.063a.012.012 0 0 0 .008.004l.309.035c.16.015.328.027.492.039l.2.011c.222.016.448.02.671.024l-.008.02.711-.02h.008l.223-.008.004-.004.234-.012c.2-.011.398-.027.594-.046.043-.004.086-.004.125-.012.238-.024.472-.055.703-.09.062-.008.12-.02.18-.031.105-.016.21-.031.316-.051l.258-.05.004-.005.05-.011c-.312.82-2.414 1.66-5.16 1.66C8.223 8.094 6 7.105 6 6.227zm7.219 11.464a4.005 4.005 0 0 0 1.586 2.801H9.199a4 4 0 0 0 1.582-2.8zm-.82-.796h-.797v-.801h.796zm.402-1.602h-1.602v-4.8h1.602zm10-5.602H1.199a.398.398 0 1 1 0-.797h21.602a.398.398 0 1 1 0 .797zm0 0M19.785 4.926c.05.02.102.027.152.027.157 0 .305-.09.372-.246a.401.401 0 0 0-.2-.516c.512-.218.59-.546.59-.722 0-.18-.078-.512-.61-.73a.395.395 0 0 0-.519.214.4.4 0 0 0 .196.516c-.512.219-.59.547-.59.722 0 .18.078.512.61.735zm0 0"/>
</svg>
